Papirus/64x64/mimetypes/application-x-msdos-program.svg

<svg xmlns="http://www.w3.org/2000/svg" width="64" height="64" version="1">
 <path style="opacity:0.2" d="M 14.5,8 C 13.115,8 12,9.115 12,10.5 v 45 c 0,1.385 1.115,2.5 2.5,2.5 h 35 C 50.885,58 52,56.885 52,55.5 V 23 L 38.25,21.75 37,8 Z"/>
 <path fill="#e4e4e4" d="m14.5 7c-1.385 0-2.5 1.115-2.5 2.5v45c0 1.385 1.115 2.5 2.5 2.5h35c1.385 0 2.5-1.115 2.5-2.5v-32.5l-13.75-1.25-1.25-13.75z"/>
 <path style="opacity:0.2" d="m 37,8 v 12.5 c 0,1.3808 1.1193,2.5 2.5,2.5 H 52 Z"/>
 <path fill="#fafafa" d="m37 7v12.5c0 1.3808 1.1193 2.5 2.5 2.5h12.5l-15-15z"/>
 <path opacity=".5" d="m18 26v12h12v-12h-12zm15 0v12h12v-12h-12zm-15 15v12h12v-12h-12zm15 0v12h12v-12h-12z"/>
 <path style="opacity:0.2;fill:#ffffff" d="M 14.5,7 C 13.115,7 12,8.115 12,9.5 v 1 C 12,9.115 13.115,8 14.5,8 H 37 c 0,-1 0,0 0,-1 z"/>
</svg>

<svg xmlns="http://www.w3.org/2000/svg" width="64" height="64" version="1">
 <path style="opacity:0.2" d="M 14.5,8 C 13.115,8 12,9.115 12,10.5 v 45 c 0,1.385 1.115,2.5 2.5,2.5 h 35 C 50.885,58 52,56.885 52,55.5 V 23 L 38.25,21.75 37,8 Z"/>
 <path fill="#48aeff" d="m14.5 7c-1.385 0-2.5 1.115-2.5 2.5v45c0 1.385 1.115 2.5 2.5 2.5h35c1.385 0 2.5-1.115 2.5-2.5v-32.5l-13.75-1.25-1.25-13.75z"/>
 <path style="opacity:0.2" d="m 37,8 v 12.5 c 0,1.3808 1.1193,2.5 2.5,2.5 H 52 Z"/>
 <path fill="#90cdff" d="m37 7v12.5c0 1.3808 1.1193 2.5 2.5 2.5h12.5l-15-15z"/>
 <path style="opacity:0.2" d="M 18,27 V 39 H 30 V 27 Z m 15,0 V 39 H 45 V 27 Z M 18,42 V 54 H 30 V 42 Z m 15,0 V 54 H 45 V 42 Z"/>
 <path d="M 18 26 L 18 38 L 30 38 L 30 26 L 18 26 z M 33 26 L 33 38 L 45 38 L 45 26 L 33 26 z M 18 41 L 18 53 L 30 53 L 30 41 L 18 41 z M 33 41 L 33 53 L 45 53 L 45 41 L 33 41 z" style="fill:#ffffff"/>
 <path style="opacity:0.2;fill:#ffffff" d="M 14.5,7 C 13.115,7 12,8.115 12,9.5 v 1 C 12,9.115 13.115,8 14.5,8 H 37 c 0,-1 0,0 0,-1 z"/>
</svg>
